mon-pix/public/images/hexa-pix-blue.svg

<svg width="132px" height="148px" viewBox="0 0 132 148" xmlns="http://www.w3.org/2000/svg" xmlns:xlink="http://www.w3.org/1999/xlink">
  <defs>
    <linearGradient x1="10.1009831%" y1="0%" x2="89.1933377%" y2="100%" id="bluePurpleGradient">
      <stop stop-color="#3D68FF" offset="0%"/>
      <stop stop-color="#8845FF" offset="100%"/>
    </linearGradient>
  </defs>
  <g stroke-width="1" fill="none">
    <g transform="translate(-989.000000, -175.000000)" stroke="url(#bluePurpleGradient)" stroke-width="5">
      <g transform="translate(991.500000, 177.250488)">
        <path d="M57.5409566,2.50726467 L6.31008495,32.6430715 C2.58330187,34.1607279 0.282923578,38.1233235 0.282923578,41.6838136 L0.282923578,101.955427 C0.282923578,105.515917 2.58330187,109.478513 6.31008495,110.996169 L57.5409566,141.131976 C61.2677396,143.17481 65.8684962,143.17481 69.5952793,141.131976 L120.826151,110.996169 C124.552934,109.478513 126.853312,105.515917 126.853312,101.955427 L126.853312,41.6838136 C126.853312,38.1233235 124.552934,34.1607279 120.826151,32.6430715 L69.5952793,2.50726467 C65.8684962,0.464431019 61.2677396,0.464431019 57.5409566,2.50726467 Z">
        </path>
      </g>
    </g>
  </g>
</svg>

<svg width="132" height="148" xmlns="http://www.w3.org/2000/svg"><defs><linearGradient x1="10.101%" y1="0%" x2="89.193%" y2="100%" id="a"><stop stop-color="#3D68FF" offset="0%"/><stop stop-color="#8845FF" offset="100%"/></linearGradient></defs><path d="M57.541 2.507L6.311 32.643c-3.728 1.518-6.028 5.48-6.028 9.04v60.272c0 3.56 2.3 7.524 6.027 9.041l51.231 30.136a12.621 12.621 0 0012.054 0l51.231-30.136c3.727-1.517 6.027-5.48 6.027-9.04V41.683c0-3.56-2.3-7.523-6.027-9.04L69.596 2.506a12.621 12.621 0 00-12.055 0z" transform="translate(2.5 2.25)" stroke="url(#a)" stroke-width="5" fill="none"/></svg>
